build/images/icon-star-0.svg

<svg width="21" height="21" viewBox="0 0 21 21" fill="none" xmlns="http://www.w3.org/2000/svg">
<path d="M10.8496 3.7359L12.4719 7.1722C12.6706 7.59295 13.0605 7.89535 13.5241 7.96576L17.1518 8.5168C17.4542 8.56273 17.6347 8.99801 17.3669 9.27085L14.7419 11.9456C14.4161 12.2775 14.2724 12.749 14.3475 13.2064L14.9671 16.9832C15.0337 17.389 14.6476 17.5879 14.4005 17.4521L11.1558 15.6689C10.7446 15.4429 10.2509 15.4429 9.83972 15.6689L6.59499 17.4521C6.34785 17.5879 5.96176 17.389 6.02833 16.9832L6.64802 13.2064C6.72306 12.749 6.57934 12.2775 6.25362 11.9456L3.62859 9.27085C3.36083 8.99801 3.54128 8.56273 3.84371 8.5168L7.47142 7.96576C7.93495 7.89535 8.32489 7.59295 8.52353 7.1722L10.1459 3.7359C10.2944 3.42137 10.7011 3.42137 10.8496 3.7359Z" stroke="#F2C94C"/>
</svg>

<svg width="21" height="21" fill="none" xmlns="http://www.w3.org/2000/svg"><path d="M10.85 3.736l1.622 3.436a1.4 1.4 0 001.052.794l3.628.55c.302.047.483.482.215.755l-2.625 2.675c-.326.332-.47.803-.395 1.26l.62 3.777c.067.406-.32.605-.567.47l-3.244-1.784a1.362 1.362 0 00-1.316 0l-3.245 1.783c-.247.136-.633-.063-.567-.469l.62-3.777a1.464 1.464 0 00-.394-1.26L3.629 9.27c-.268-.273-.088-.708.215-.754l3.627-.551a1.4 1.4 0 001.053-.794l1.622-3.436a.38.38 0 01.704 0z" stroke="#F2C94C"/></svg>
